img/svg/net/shiira.svg

<?xml version="1.0" encoding="iso-8859-1"?>
<!-- Generator: Adobe Illustrator 21.0.2, SVG Export Plug-In . SVG Version: 6.00 Build 0)  -->
<svg version="1.1" id="&#x56FE;&#x5C42;_1" xmlns="http://www.w3.org/2000/svg" xmlns:xlink="http://www.w3.org/1999/xlink" x="0px"
	 y="0px" viewBox="0 0 16 16" style="enable-background:new 0 0 16 16;" xml:space="preserve">
<path d="M15.528,6.385c-0.232-0.264-0.471-0.523-0.721-0.771c-0.143-0.142-0.335-0.252-0.407-0.449
	c-0.216-0.595-0.471-1.173-0.737-1.746c-0.189-0.407-0.358-0.824-0.612-1.197c-0.22-0.321-0.508-0.499-0.923-0.434
	c-0.223,0.035-0.44,0.088-0.659,0.137c-0.127,0.028-0.256,0.037-0.38,0.009c-0.346-0.078-0.669-0.216-0.975-0.397
	c-0.329-0.194-0.647-0.41-1.025-0.511C8.882,0.971,8.694,1.005,8.517,1.118C8.357,1.22,8.215,1.344,8.085,1.482
	c-0.054,0.057-0.111,0.1-0.197,0.099C7.581,1.576,7.275,1.6,6.972,1.642C6.811,1.665,6.663,1.644,6.507,1.597
	C6.093,1.473,5.584,1.654,5.339,1.999C5.304,2.048,5.256,2.071,5.206,2.093C5.2,2.095,5.197,2.101,5.192,2.103
	C5.139,2.125,5.085,2.145,5.031,2.165C4.878,2.222,4.725,2.279,4.588,2.362C4.56,2.379,4.535,2.399,4.508,2.416
	C3.914,2.784,3.352,3.193,2.87,3.707C1.653,5.002,1.053,6.539,1,8.379c0.002,0.14,0.011,0.278,0.021,0.415
	C1.029,8.91,1.042,9.031,1.056,9.155C1.069,9.251,1.084,9.346,1.1,9.44c0.024,0.148,0.057,0.292,0.09,0.436
	C1.901,12.814,4.549,15,7.715,15c0.264,0,0.517-0.007,0.773-0.037c1.237-0.135,5.137-1.074,6.148-3.944
	c0.013-0.036,0.027-0.072,0.039-0.108c0.224-0.644,0.284-1.314,0.299-1.992c0.017-0.76-0.012-1.517-0.162-2.265
	c-0.026-0.128,0.015-0.13,0.123-0.118c0.172,0.02,0.344,0.059,0.519,0.029C15.626,6.537,15.64,6.512,15.528,6.385z M7.913,6.785
	C7.94,6.849,7.987,6.906,8.024,6.967c0.016,0.026,0.046,0.057,0.041,0.079C8.023,7.219,7.99,7.389,8.015,7.571
	c0.011,0.081-0.129,0.112-0.207,0.032C7.63,7.422,7.522,7.206,7.56,6.943c0.013-0.09,0.047-0.177,0.069-0.266
	C7.665,6.525,7.603,6.42,7.468,6.351C7.2,6.215,6.906,6.311,6.767,6.581C6.737,6.64,6.71,6.701,6.676,6.757
	c-0.04,0.068-0.091,0.129-0.184,0.104C6.404,6.838,6.379,6.767,6.377,6.685c-0.001-0.036,0-0.071,0-0.107
	c0.04-0.284,0.032-0.586,0.301-0.785C6.87,5.651,7.113,5.621,7.316,5.502C7.376,5.467,7.391,5.537,7.4,5.579
	C7.488,6.016,7.743,6.383,7.913,6.785z M6.24,6.951C6.101,6.653,5.668,6.635,5.469,6.918c-0.05,0.071-0.091,0.148-0.146,0.214
	C5.272,7.195,5.198,7.231,5.118,7.196C5.041,7.163,5.049,7.084,5.062,7.021c0.089-0.443,0.31-0.907,0.861-1.043
	c0.37-0.092,0.543-0.305,0.591-0.701c0.004-0.033,0.006-0.064,0.043-0.07c0.048-0.008,0.076,0.024,0.092,0.064
	C6.72,5.442,6.671,5.597,6.56,5.726C6.326,5.995,6.224,6.299,6.252,6.655c0.021,0.27,0.163,0.408,0.436,0.388
	c0.109-0.008,0.185,0.039,0.217,0.133c0.084,0.25,0.243,0.445,0.436,0.616c0.023,0.02,0.043,0.044,0.06,0.069
	c0.043,0.064,0.031,0.127-0.013,0.184c-0.047,0.059-0.1,0.028-0.151,0.003c-0.206-0.1-0.415-0.173-0.648-0.102
	C6.421,7.998,6.299,8.09,6.238,8.26C6.215,8.327,6.201,8.432,6.101,8.415C6.006,8.399,5.997,8.3,5.984,8.219
	C5.976,8.164,5.977,8.108,5.974,8.052C5.958,7.804,6.084,7.601,6.18,7.388C6.243,7.249,6.315,7.109,6.24,6.951z M3.685,4.61
	c-0.039,0.023-0.072,0.056-0.11,0.083C3.517,4.734,3.462,4.826,3.381,4.757C3.306,4.693,3.349,4.603,3.388,4.532
	c0.208-0.383,0.544-0.589,0.966-0.645c0.175-0.023,0.347-0.056,0.54-0.11C4.823,3.935,4.776,4.073,4.781,4.222
	c0.007,0.214,0.086,0.293,0.297,0.299C5.268,4.527,5.32,4.576,5.298,4.762C5.28,4.914,5.277,5.066,5.27,5.218
	C5.257,5.474,5.349,5.674,5.558,5.822c0.063,0.044,0.14,0.093,0.089,0.183C5.594,6.098,5.512,6.047,5.444,6.018
	C5.183,5.909,4.923,5.835,4.648,5.977C4.462,6.073,4.326,6.206,4.279,6.417c-0.017,0.08-0.042,0.158-0.105,0.217
	C4.145,6.663,4.112,6.69,4.067,6.68C4.013,6.668,3.995,6.623,3.992,6.576C3.972,6.173,3.94,5.769,4.245,5.435
	c0.137-0.15,0.198-0.329,0.15-0.536C4.314,4.55,4.002,4.421,3.685,4.61z M6.189,4.478c-0.093,0.105-0.162,0.22-0.154,0.368
	C6.04,4.921,5.985,4.95,5.923,4.97C5.815,5.005,5.72,5.06,5.641,5.144c-0.03,0.032-0.062,0.08-0.113,0.057
	C5.47,5.175,5.493,5.113,5.486,5.078c0.008-0.306,0.349-0.677,0.638-0.703C6.159,4.371,6.199,4.36,6.22,4.399
	C6.238,4.432,6.209,4.456,6.189,4.478z M6.256,4.575c0.156-0.299,0.37-0.546,0.658-0.727c0.078-0.049,0.141-0.058,0.136,0.06
	c-0.011,0.279,0.056,0.545,0.12,0.811c0.016,0.067,0.03,0.127-0.077,0.1C6.794,4.744,6.565,4.84,6.396,5.097
	C6.358,5.155,6.325,5.257,6.23,5.226c-0.106-0.035-0.099-0.141-0.101-0.25C6.117,4.837,6.188,4.706,6.256,4.575z M5.474,1.995
	c0.005-0.02,0.003-0.042,0.018-0.056c0.042-0.037,0.086-0.072,0.134-0.101c0.31-0.185,0.632-0.224,0.959-0.132
	c0.062,0.018,0.123,0.031,0.185,0.059c0.318,0.141,0.63,0.152,0.951,0.022C7.744,1.779,7.77,1.78,7.808,1.774
	C7.81,1.875,7.752,1.902,7.687,1.926C7.515,1.989,7.344,2.057,7.171,2.118C7.042,2.163,6.993,2.246,6.987,2.382
	C6.971,2.768,6.915,3.152,6.926,3.54c0.003,0.1-0.041,0.186-0.114,0.258C6.703,3.906,6.588,4.007,6.498,4.133
	c-0.06,0.084-0.114,0.073-0.181-0.006C5.956,3.696,5.406,3.748,5.135,4.236C5.101,4.297,5.072,4.377,4.98,4.35
	C4.891,4.323,4.879,4.24,4.879,4.162C4.88,3.788,5.186,3.341,5.538,3.204c0.22-0.086,0.436-0.174,0.601-0.354
	C6.29,2.685,6.294,2.321,6.14,2.16C6.076,2.093,5.994,2.069,5.904,2.07C5.786,2.071,5.669,2.073,5.551,2.074
	c-0.035,0-0.077,0.005-0.092-0.037C5.454,2.021,5.469,2.01,5.474,1.995z M4.191,2.778c0.223-0.339,0.823-0.57,1.215-0.468
	C5.608,2.361,5.806,2.43,6.017,2.443c0.031,0.002,0.067,0.005,0.076,0.04c0.011,0.044-0.027,0.061-0.06,0.076
	C5.985,2.579,5.936,2.584,5.883,2.578C5.802,2.57,5.721,2.564,5.639,2.564C5.396,2.567,5.339,2.644,5.401,2.876
	c0.055,0.204,0.024,0.301-0.149,0.424C5.247,3.134,5.219,2.994,5.096,2.899C4.95,2.786,4.793,2.74,4.61,2.817
	c-0.107,0.045-0.211,0.105-0.332,0.11c-0.04,0.002-0.085,0.003-0.11-0.037C4.141,2.846,4.169,2.811,4.191,2.778z M3.315,3.959
	c0-0.014,0.007-0.031,0.017-0.042c0.194-0.201,0.399-0.39,0.625-0.556c0.031-0.023,0.072-0.025,0.1,0.002
	c0.182,0.18,0.404,0.128,0.621,0.112c0.088-0.007,0.166,0.001,0.184,0.11C4.844,3.671,4.779,3.711,4.708,3.742
	C4.584,3.796,4.449,3.792,4.319,3.816C4.042,3.87,3.775,3.939,3.551,4.128C3.481,4.187,3.38,4.276,3.294,4.213
	C3.211,4.151,3.315,4.047,3.315,3.959z M10.174,11.253c-0.207,1.148-0.864,1.912-1.968,2.309c-0.226,0.081-0.432,0.07-0.654,0.026
	c-0.846-0.168-1.696-0.309-2.551-0.417C4.641,13.125,4,13,3.948,12.903c-0.026-0.048-0.726-0.779-0.924-0.882
	c0.104-0.021,0.15,0.023,0.199,0.045c1.217,0.529,2.379,0.436,3.45-0.354c0.755-0.557,1.146-1.325,1.148-2.273
	c0-0.164-0.035-0.324-0.087-0.479C7.656,8.728,7.521,8.653,7.259,8.678c-0.075,0.007-0.17,0.072-0.22-0.031
	c-0.042-0.088,0.014-0.17,0.067-0.239C7.391,8.033,7.783,7.852,8.24,7.786C8.269,7.845,8.225,7.879,8.199,7.91
	C8.065,8.07,8.048,8.245,8.103,8.441c0.069,0.247,0.075,0.502,0.083,0.757c0.018,0.514-0.028,1.029,0.025,1.543
	c0.013,0.126,0.063,0.219,0.151,0.305c0.127,0.124,0.792-0.677,1.054-1.231c0.045-0.096,0.107-0.186,0.171-0.271
	C9.684,9.415,9.768,9.422,9.84,9.562c0.085,0.166,0.109,0.35,0.123,0.532c0.02,0.246,0.05,0.486,0.161,0.71
	C10.197,10.947,10.201,11.103,10.174,11.253z"/>
</svg>

<svg xmlns="http://www.w3.org/2000/svg" viewBox="0 0 16 16"><title>shiira</title><path d="M4.51,2.42c.17-.09.34-.17.52-.25a2.59,2.59,0,0,0-.44.2Z"/><path d="M15.53,6.38c-.23-.26-.47-.52-.72-.77s-.34-.25-.41-.45c-.22-.59-.47-1.17-.74-1.75A8.11,8.11,0,0,0,13,2.22a.88.88,0,0,0-.92-.43c-.22,0-.44.09-.66.14a.87.87,0,0,1-.38,0,3.37,3.37,0,0,1-1-.4,4.17,4.17,0,0,0-1-.51.69.69,0,0,0-.57.09,2.27,2.27,0,0,0-.43.36.25.25,0,0,1-.2.1A6,6,0,0,0,7,1.64a1.06,1.06,0,0,1-.46,0A1.11,1.11,0,0,0,5.34,2a.29.29,0,0,1-.13.09h0L5,2.16c-.18.08-.35.16-.52.25A8,8,0,0,0,2.87,3.71,6.82,6.82,0,0,0,1,8.38c0,.14,0,.28,0,.42s0,.24,0,.36,0,.19,0,.29.06.29.09.44A6.8,6.8,0,0,0,8.49,15c1.24-.14,5.14-1.07,6.15-3.94l0-.11a6.45,6.45,0,0,0,.3-2,10.25,10.25,0,0,0-.16-2.26c0-.13,0-.13.12-.12a1.83,1.83,0,0,0,.52,0C15.63,6.54,15.64,6.51,15.53,6.38Zm-8.06,0a.51.51,0,0,0-.7.23l-.09.18c0,.07-.09.13-.18.1s-.11-.09-.12-.18,0-.07,0-.11c0-.28,0-.59.3-.78a6.59,6.59,0,0,1,.64-.29c.06,0,.07,0,.08.08a6.48,6.48,0,0,0,.51,1.21A1.51,1.51,0,0,0,8,7s0,.06,0,.08a1.42,1.42,0,0,0,0,.53c0,.08-.13.11-.21,0a.76.76,0,0,1-.25-.66c0-.09,0-.18.07-.27A.27.27,0,0,0,7.47,6.35Zm-.88,1.6a.49.49,0,0,0-.35.31c0,.07,0,.17-.14.15S6,8.3,6,8.22a1.68,1.68,0,0,1,0-.17,1.39,1.39,0,0,1,.21-.66A.5.5,0,0,0,6.24,7a.45.45,0,0,0-.77,0c0,.07-.09.15-.15.21a.17.17,0,0,1-.21.06C5,7.16,5,7.08,5.06,7a1.21,1.21,0,0,1,.86-1,.72.72,0,0,0,.59-.7s0-.06,0-.07.08,0,.09.06a.42.42,0,0,1-.09.45,1.21,1.21,0,0,0-.31.93A.37.37,0,0,0,6.69,7a.19.19,0,0,1,.22.13,1.44,1.44,0,0,0,.44.62l.06.07a.14.14,0,0,1,0,.18c0,.06-.1,0-.15,0A.86.86,0,0,0,6.59,7.95ZM3.69,4.61l-.11.08c-.06,0-.11.13-.19.06s0-.15,0-.23a1.22,1.22,0,0,1,1-.65,3.88,3.88,0,0,0,.54-.11,1,1,0,0,0-.11.44c0,.21.09.29.3.3s.24.05.22.24,0,.3,0,.46a.65.65,0,0,0,.29.6c.06,0,.14.09.09.18s-.13,0-.2,0a.89.89,0,0,0-.8,0,.64.64,0,0,0-.37.44.4.4,0,0,1-.1.22.12.12,0,0,1-.11,0A.1.1,0,0,1,4,6.58a1.43,1.43,0,0,1,.25-1.14.57.57,0,0,0,.15-.54A.44.44,0,0,0,3.69,4.61Zm2.5-.13A.5.5,0,0,0,6,4.85C6,4.92,6,5,5.92,5a.64.64,0,0,0-.28.17s-.06.08-.11.06,0-.09,0-.12a.83.83,0,0,1,.64-.7s.07,0,.1,0S6.21,4.46,6.19,4.48Zm.07.1a1.84,1.84,0,0,1,.66-.73c.08,0,.14-.06.14.06a3,3,0,0,0,.12.81c0,.07,0,.13-.08.1a.59.59,0,0,0-.7.28c0,.06-.07.16-.17.13s-.1-.14-.1-.25A.76.76,0,0,1,6.26,4.57ZM5.49,1.94l.13-.1a1.18,1.18,0,0,1,1-.13l.19.06a1.16,1.16,0,0,0,1,0h.09c0,.1-.06.13-.12.15l-.52.19A.25.25,0,0,0,7,2.38c0,.39-.07.77-.06,1.16a.34.34,0,0,1-.11.26,2.69,2.69,0,0,0-.31.33c-.06.08-.11.07-.18,0a.68.68,0,0,0-1.18.11c0,.06-.06.14-.16.11s-.1-.11-.1-.19a1.14,1.14,0,0,1,.66-1,1.5,1.5,0,0,0,.6-.35.58.58,0,0,0,0-.69.31.31,0,0,0-.24-.09H5.55s-.08,0-.09,0,0,0,0,0S5.48,2,5.49,1.94Zm-1.3.84a1.29,1.29,0,0,1,1.21-.47A3.21,3.21,0,0,0,6,2.44s.07,0,.08,0,0,.06-.06.08a.29.29,0,0,1-.15,0H5.64c-.24,0-.3.08-.24.31a.32.32,0,0,1-.15.42.48.48,0,0,0-.16-.4.46.46,0,0,0-.49-.08,1,1,0,0,1-.33.11s-.08,0-.11,0S4.17,2.81,4.19,2.78ZM3.31,4a.07.07,0,0,1,0,0A4.86,4.86,0,0,1,4,3.36a.08.08,0,0,1,.1,0c.18.18.4.13.62.11s.17,0,.18.11a.22.22,0,0,1-.15.16,1.76,1.76,0,0,1-.39.07,1.6,1.6,0,0,0-.77.31c-.07.06-.17.15-.26.08S3.32,4,3.31,4Zm4.24,9.63c-.85-.17-1.7-.31-2.55-.42a3,3,0,0,1-1.05-.27A6.86,6.86,0,0,0,3,12a.27.27,0,0,1,.2,0,3.27,3.27,0,0,0,3.45-.35A2.71,2.71,0,0,0,7.82,9.44,1.49,1.49,0,0,0,7.73,9a.38.38,0,0,0-.47-.28c-.07,0-.17.07-.22,0s0-.17.07-.24a1.64,1.64,0,0,1,1.13-.62c0,.06,0,.09,0,.12a.54.54,0,0,0-.1.53,3.17,3.17,0,0,1,.08.76c0,.51,0,1,0,1.54a.47.47,0,0,0,.15.31c.13.12.79-.68,1.05-1.23a1.6,1.6,0,0,1,.17-.27c.1-.13.18-.12.25,0a1.4,1.4,0,0,1,.12.53,1.88,1.88,0,0,0,.16.71.71.71,0,0,1,0,.45,2.84,2.84,0,0,1-2,2.31A1.16,1.16,0,0,1,7.55,13.59Z"/></svg>
